public/img/logos/sponsor_logos/optum.svg

<svg width="708" height="205.2" xmlns="http://www.w3.org/2000/svg" xml:space="preserve" version="1.1">

 <g>
  <title>Layer 1</title>
  <path id="svg_1" fill="#FF612B" d="m526.3,158.6l0,-120.1l38.1,0l0.2,14.3c7.6,-11 18.8,-16.1 31.8,-16.1c16.4,0 28,7.6 34.3,19.5c7.6,-13 22,-19.5 36.7,-19.5c26.2,0 40.6,19.7 40.6,44.6l0,77.3l-38.8,0l0,-71.4c0,-11.7 -7.4,-18.6 -16.4,-18.6s-16.4,6.9 -16.4,18.6l0,71.5l-38.8,0l0,-71.5c0,-11.7 -7.4,-18.6 -16.4,-18.6c-9,0 -16.4,6.9 -16.4,18.6l0,71.5l-38.5,0l0,-0.1zm-13,-45.7c0,30.9 -24.6,48.4 -56,48.4c-31.4,0 -56,-17.5 -56,-48.4l0,-74.4l39,0l0,73.3c0,10.5 6.9,17.3 17,17.3s17,-6.7 17,-17.3l0,-73.3l39,0l0,74.4zm-122.6,-43.4l0,-31l-32,0l0,-30.7l-38.8,0l0,107.8c0,29.8 17.7,44.8 46.2,44.8c8.3,0 17,-0.9 24.6,-4l0,-30.7c-5.6,1.8 -10.5,2.5 -14.8,2.5c-10.3,0 -17.3,-4.7 -17.3,-15.7l0,-43l32.1,0zm-119.8,29.1c0,17.3 -12.5,30 -28,30c-15.7,0 -28.2,-12.8 -28.2,-30c0,-17 12.5,-29.8 28.2,-29.8c15.4,0 28,12.8 28,29.8zm-56.3,106.6l0,-59.1c9.9,9.2 22.9,14.6 37.2,14.6c32.5,0 58,-27.6 58,-62.1c0,-34.3 -25.5,-61.8 -58,-61.8c-15,0 -28.2,5.8 -38.3,15.7l-0.2,-13.9l-37.6,0l0,166.7l38.9,0l0,-0.1zm-91.8,-125c0,24.6 -18.1,43 -40.8,43s-40.8,-18.4 -40.8,-43c0,-24.6 18.1,-43 40.8,-43s40.8,18.4 40.8,43zm-40.8,-80.2c-45.9,0 -82,35.6 -82,80.2s36.1,80.2 82,80.2c45.9,0 82,-35.6 82,-80.2s-36.1,-80.2 -82,-80.2z" class="st0"/>
 </g>
</svg>

<?xml version="1.0" encoding="utf-8"?>
<!-- Generator: Adobe Illustrator 25.3.1, SVG Export Plug-In . SVG Version: 6.00 Build 0)  -->
<svg version="1.1" id="Optum" xmlns="http://www.w3.org/2000/svg" xmlns:xlink="http://www.w3.org/1999/xlink" x="0px" y="0px"
	 viewBox="0 0 708 205.2" style="enable-background:new 0 0 708 205.2;" xml:space="preserve">
<style type="text/css">
	.st0{fill:#FF612B;}
</style>
<path class="st0" d="M526.3,158.6V38.5h38.1l0.2,14.3c7.6-11,18.8-16.1,31.8-16.1c16.4,0,28,7.6,34.3,19.5c7.6-13,22-19.5,36.7-19.5
	c26.2,0,40.6,19.7,40.6,44.6v77.3h-38.8V87.2c0-11.7-7.4-18.6-16.4-18.6s-16.4,6.9-16.4,18.6v71.5h-38.8V87.2
	c0-11.7-7.4-18.6-16.4-18.6c-9,0-16.4,6.9-16.4,18.6v71.5H526.3z M513.3,112.9c0,30.9-24.6,48.4-56,48.4c-31.4,0-56-17.5-56-48.4
	V38.5h39v73.3c0,10.5,6.9,17.3,17,17.3s17-6.7,17-17.3V38.5h39V112.9z M390.7,69.5V38.5h-32V7.8h-38.8v107.8
	c0,29.8,17.7,44.8,46.2,44.8c8.3,0,17-0.9,24.6-4v-30.7c-5.6,1.8-10.5,2.5-14.8,2.5c-10.3,0-17.3-4.7-17.3-15.7v-43H390.7z
	 M270.9,98.6c0,17.3-12.5,30-28,30c-15.7,0-28.2-12.8-28.2-30c0-17,12.5-29.8,28.2-29.8C258.3,68.8,270.9,81.6,270.9,98.6z
	 M214.6,205.2v-59.1c9.9,9.2,22.9,14.6,37.2,14.6c32.5,0,58-27.6,58-62.1c0-34.3-25.5-61.8-58-61.8c-15,0-28.2,5.8-38.3,15.7
	l-0.2-13.9h-37.6v166.7H214.6z M122.8,80.2c0,24.6-18.1,43-40.8,43s-40.8-18.4-40.8-43c0-24.6,18.1-43,40.8-43
	S122.8,55.6,122.8,80.2z M82,0C36.1,0,0,35.6,0,80.2s36.1,80.2,82,80.2c45.9,0,82-35.6,82-80.2S127.9,0,82,0z"/>
</svg>
